icons/svg/warning_44.svg

<svg width="44" height="44" viewBox="0 0 44 44" xmlns="http://www.w3.org/2000/svg"><title>alerts-and-notifications/warning_44</title><path d="M21.999942 4c-1.183985 0-2.2469714.594-2.8439639 1.587L1.45620318 35.183c-.589992494.982-.605992291 2.162-.04299945 3.157C2.00119626 39.38 3.08018254 40 4.29916704 40l35.40154986 0c1.2189845 0 2.2979708-.62 2.8859633-1.66.5629929-.995.5469931-2.175-.0419994-3.157L24.8429058 5.587l.001 0C24.2469134 4.594 23.1839269 4 21.999942 4m17.7007749 37L4.29916704 41c-1.58397986 0-2.98796201-.81-3.755952247-2.167-.742990554-1.313-.722990808-2.87.0549993-4.165L18.2979891 5.073C19.0779791 3.775 20.4619615 3 21.999942 3c1.5379804 0 2.9219628.775 3.7009529 2.073 0 0 0 0 .001 0l17.700775 29.596c.7769901 1.294.7969898 2.851.0539993 4.164C42.6886789 40.19 41.2846968 41 39.7007169 41zm-18.2007686-8.5c0 .276.2239972.5.4999937.5.2759965 0 .4999936-.224.4999936-.5 0-.276-.2239971-.5-.4999936-.5-.2759965 0-.4999937.224-.4999937.5zM21.999942 16c-.2759965 0-.4999937.224-.4999937.5l0 12c0 .276.2239972.5.4999937.5.2759965 0 .4999936-.224.4999936-.5l0-12c0-.276-.2239971-.5-.4999936-.5z" fill="#000" fill-rule="evenodd"/></svg>

<svg width="44" height="44" viewBox="0 0 44 44" xmlns="http://www.w3.org/2000/svg"><title>alerts-and-notifications/warning_44</title><path d="M43.4022217 34.669c.777 1.294.797 2.851.054 4.164-.768 1.357-2.172 2.167-3.756 2.167l-35.401 0c-1.584 0-2.988-.81-3.756000001-2.167-.743-1.313-.723-2.87.055-4.165L18.2972217 5.073c.781-1.298 2.164-2.073 3.703-2.073 1.538 0 2.921.775 3.701 2.073l.001 0 17.7 29.596zm-.816 3.671c.563-.996.548-2.175-.041-3.157l-17.702-29.597c-.596-.993-1.66-1.586-2.843-1.586-1.184 0-2.247.593-2.845 1.588l-17.699 29.593c-.591000001.983-.606000001 2.163-.043 3.159.588 1.04 1.667 1.66 2.886 1.66l35.401 0c1.219 0 2.298-.62 2.886-1.66zm-20.5864-22.3403c.276 0 .5.224.5.5l0 12c0 .276-.224.5-.5.5-.276 0-.5-.224-.5-.5l0-12c0-.276.224-.5.5-.5zm0 16c.276 0 .5.224.5.5 0 .276-.224.5-.5.5-.276 0-.5-.224-.5-.5 0-.276.224-.5.5-.5z" fill="#000" fill-rule="evenodd"/></svg>
